X:507
T:Reel 507
M:4/4
K:Dmaj
L:1/8
AG|FEFG A2GE|ADFE FGAG||FEDE FGAB|cABG A2AF:||2FAGE FEDF|Addc d2d2|dedc d2Ad|cdec dcAB|=cBcd e2ef||fede dfed:||2fdec d2cB|Addc d2cB|A2de fded|ABce dcAB|Adce dcAG|Addc d2AB|cdec dcA^G|Acce dcAB|=cAGE F
